X:1
T:C major William Billings, 1779 (Revised 1786)
T:James Relly, 1758 (Hymn 87)  10.10 11.11
T:Madrid No copyright. Transcribed from the Psalm-Singer's Amusement.
T:No Copyright.  Transcribed from Suffolk Harmony, 1786.
T:No Copyright.  Transcribed from Suffolk Harmony, 1786.
Z:No Copyright.  Transcribed from Suffolk Harmony, 1786.
%%score [ 1 2 3 4 ]
L:1/8
M:none
K:C
V:1 treble nm="Tr." snm="Tr."
V:2 treble nm="C." snm="C."
V:3 treble-8 nm="T." snm="T."
V:4 bass nm="B." snm="B."
V:1
 G4 | G4 G2 G2 | G6 c2 | (B2 c2) d2 c2 | B6 G2 | G4 c2 B2 | c6 B2 | c4 f2 e2 | d6 B2 | %9
 (c2 d2) c2 c2 | (B2 G2) c2 d2 | c4 d2 c2 | B6 B2 | c4 d2 c2 | (B2 G2) c2 d2 | c4 g2 f2 | e8 |] %17
V:2
 C4 | E4 E2 C2 | E6 G2 | F4 F2 E2 | D6 C2 | E4 E2 G2 | G6 E2 | A4 A2 A2 | G6 G2 | G4 G2 F2 | %10
w: 1.~How|charm- ing- ly|sounds the|word of the|Lord! Where|wit- ness a-|bounds, that|man is re-|stored to|God, his pos-|
 E4 A2 A2 | (G2 A2) ^G2 ^F2 | G6 G2 | G4 G2 F2 | E4 A2 A2 | (G2 A2) G2 G2 | G8 |] %17
w: ess- ion, dear|Je- * sus, in|Thee, from|sin and trans-|gres- sion for-|ev- * er set|free.|
V:3
 G4 | c4 c2 B2 | c6 e2 | (d2 c2) B2 A2 | G6 G2 | c4 c2 d2 | e6 g2 | (f2 e2) d2 c2 | d6 d2 | %9
w: 2.~How|glor- ious the|name of|Je- * sus, our|King! Thou|cru- ci- fied|Lamb, Thine|hon- * ors we|sing: Our|
 (e2 d2) e2 f2 | g4 f2 f2 | (e2 c2) B2 c2 | d6 d2 | e4 d2 c2 | g4 f2 f2 | e4 d2 d2 | c8 |] %17
w: hope * and sal-|va- tion to|world * with- out|end; Our|near- est re-|la- tion, and|faith- ful- lest|friend.|
V:4
 C,4 | C,4 C,2 G,,2 | C,6 C,2 | D,4 D,2 D,2 | G,,6 A,,2 | C,4 C,2 G,2 | C6 G,2 | A,4 D,2 D,2 | %8
 G,6 G,2 | (C2 B,2) C2 A,2 | (G,2 E,2) F,2 D,2 | (E,2 F,2) G,2 A,2 | G,6 G,2 | C4 B,2 A,2 | %14
 (G,2 E,2) F,2 D,2 | (E,2 F,2) G,2 G,2 | C,8 |] %17

